polaris-icons/icons/new-icons/SmileyJoyMajor.svg

<svg width="20" height="20" viewBox="0 0 20 20" fill="none" xmlns="http://www.w3.org/2000/svg">
<path d="M8.28033 6.96967C7.98744 6.67678 7.51256 6.67678 7.21967 6.96967L6.21967 7.96967C5.92678 8.26256 5.92678 8.73744 6.21967 9.03033C6.51256 9.32322 6.98744 9.32322 7.28033 9.03033L7.75 8.56066L8.21967 9.03033C8.51256 9.32322 8.98744 9.32322 9.28033 9.03033C9.57322 8.73744 9.57322 8.26256 9.28033 7.96967L8.28033 6.96967Z" fill="#4A4A4A"/>
<path d="M11.7197 6.96967C12.0126 6.67678 12.4874 6.67678 12.7803 6.96967L13.7803 7.96967C14.0732 8.26256 14.0732 8.73744 13.7803 9.03033C13.4874 9.32322 13.0126 9.32322 12.7197 9.03033L12.25 8.56066L11.7803 9.03033C11.4874 9.32322 11.0126 9.32322 10.7197 9.03033C10.4268 8.73744 10.4268 8.26256 10.7197 7.96967L11.7197 6.96967Z" fill="#4A4A4A"/>
<path d="M13.8757 10.9896C14.0123 10.4545 13.5523 10 13 10L7 10C6.44772 10 5.98769 10.4545 6.12435 10.9896C6.30056 11.6797 6.65947 12.3163 7.17157 12.8284C7.92172 13.5786 8.93913 14 10 14C11.0609 14 12.0783 13.5786 12.8284 12.8284C13.3405 12.3163 13.6994 11.6797 13.8757 10.9896Z" fill="#4A4A4A"/>
<path fill-rule="evenodd" clip-rule="evenodd" d="M17 10C17 13.866 13.866 17 10 17C6.13401 17 3 13.866 3 10C3 6.13401 6.13401 3 10 3C13.866 3 17 6.13401 17 10ZM15.5 10C15.5 13.0376 13.0376 15.5 10 15.5C6.96243 15.5 4.5 13.0376 4.5 10C4.5 6.96243 6.96243 4.5 10 4.5C13.0376 4.5 15.5 6.96243 15.5 10Z" fill="#4A4A4A"/>
</svg>

<svg viewBox="0 0 20 20" xmlns="http://www.w3.org/2000/svg"><path d="M8.28 6.97a.75.75 0 0 0-1.06 0l-1 1a.75.75 0 0 0 1.06 1.06l.47-.47.47.47a.75.75 0 0 0 1.06-1.06l-1-1Z" fill="#5C5F62"/><path d="M11.72 6.97a.75.75 0 0 1 1.06 0l1 1a.75.75 0 0 1-1.06 1.06l-.47-.47-.47.47a.75.75 0 1 1-1.06-1.06l1-1Z" fill="#5C5F62"/><path d="M13.876 10.99c.136-.536-.324-.99-.876-.99h-6c-.552 0-1.012.454-.876.99a4 4 0 0 0 7.752 0Z" fill="#5C5F62"/><path fill-rule="evenodd" d="M17 10a7 7 0 1 1-14 0 7 7 0 0 1 14 0Zm-1.5 0a5.5 5.5 0 1 1-11 0 5.5 5.5 0 0 1 11 0Z" fill="#5C5F62"/></svg>
